Sources/FrostedUI/Resources/Icons.xcassets/parachute20.imageset/parachute-20.svg

<svg width="20" height="20" viewBox="0 0 20 20" fill="none" xmlns="http://www.w3.org/2000/svg" data-fui-icon="true">
  <path
    d="M9.99963 1C12.1406 1 13.8081 1.57153 15.0914 2.46191C16.3677 3.34752 17.2231 4.52031 17.7955 5.66504C18.3669 6.8079 18.6659 7.94183 18.8229 8.78418C18.9016 9.20705 18.9451 9.56144 18.9694 9.8125C18.9815 9.93814 18.9895 10.0388 18.9938 10.1094C18.9959 10.1445 18.9968 10.1725 18.9977 10.1924C18.9981 10.2021 18.9984 10.2099 18.9987 10.2158C18.9988 10.2188 18.9996 10.2217 18.9996 10.2236V10.2275L18.9899 10.3701C18.9672 10.5096 18.9054 10.6409 18.8102 10.748L14.9821 15.0537C14.9922 15.1178 14.9996 15.1831 14.9996 15.25V17.4502C14.9995 18.3061 14.3057 18.9999 13.4498 19H6.54944C5.6937 18.9997 4.99974 18.306 4.99963 17.4502V15.25C4.99963 15.1832 5.00613 15.1177 5.01624 15.0537L1.18909 10.748C1.06216 10.6051 0.994016 10.4186 0.999634 10.2275V10.2236C0.999699 10.2217 1.0005 10.2188 1.00061 10.2158C1.00083 10.2099 1.00115 10.2021 1.00159 10.1924C1.00247 10.1725 1.00336 10.1445 1.00549 10.1094C1.00978 10.0388 1.01777 9.93814 1.02991 9.8125C1.05417 9.56145 1.09763 9.20704 1.17639 8.78418C1.33332 7.94186 1.63239 6.80788 2.20374 5.66504C2.77609 4.52033 3.63164 3.34754 4.90784 2.46191C6.1911 1.57149 7.85873 1.00006 9.99963 1ZM6.49963 17.4502C6.49974 17.4775 6.52213 17.4997 6.54944 17.5H13.4498C13.4773 17.4999 13.4995 17.4777 13.4996 17.4502V15.5H6.49963V17.4502ZM5.87463 9C4.34769 9.00006 3.4875 9.44821 3.02209 9.83008C2.87754 9.94873 2.76549 10.0658 2.6803 10.1689L6.09534 14.0098C6.14581 14.0036 6.19749 14 6.24963 14H9.24963V10.4287C9.23635 10.4058 9.22196 10.3779 9.20276 10.3486C9.11569 10.216 8.9654 10.0256 8.72717 9.83008C8.26169 9.44822 7.40157 9 5.87463 9ZM14.1246 9C12.5977 9.00006 11.7375 9.44821 11.2721 9.83008C11.0339 10.0256 10.8835 10.216 10.7965 10.3486C10.7773 10.3779 10.7629 10.4058 10.7496 10.4287V14H13.7496C13.8014 14 13.8528 14.0036 13.903 14.0098L17.318 10.1689C17.2328 10.0659 17.1215 9.94854 16.9772 9.83008C16.5117 9.44822 15.6516 9 14.1246 9ZM9.99963 2.5C8.14092 2.50006 6.77678 2.99114 5.76331 3.69434C4.74306 4.40233 4.03559 5.35497 3.54553 6.33496C3.23358 6.9589 3.01299 7.58692 2.85803 8.1543C3.58819 7.77532 4.57089 7.50005 5.87463 7.5C7.72214 7.5 8.925 8.05196 9.67834 8.66992C9.7984 8.76843 9.90412 8.86968 9.99963 8.9668C10.0951 8.86968 10.2009 8.76843 10.3209 8.66992C11.0742 8.05193 12.2771 7.50006 14.1246 7.5C15.4279 7.5 16.4101 7.77556 17.1403 8.1543C16.9853 7.58697 16.7657 6.95882 16.4537 6.33496C15.9636 5.35495 15.2563 4.40231 14.236 3.69434C13.2224 2.99118 11.8584 2.5 9.99963 2.5Z"
    fill="currentColor"
  />
</svg>

<svg xmlns="http://www.w3.org/2000/svg" width="20" height="20" fill="none" data-fui-icon="true" viewBox="0 0 20 20"><path fill="currentColor" d="M10 1c2.14 0 3.808.572 5.091 1.462 1.277.886 2.132 2.058 2.705 3.203.57 1.143.87 2.277 1.027 3.12a12 12 0 0 1 .17 1.324l.005.083v.024l.002.008v.003l-.01.143a.75.75 0 0 1-.18.378l-3.828 4.306q.016.097.018.196v2.2A1.55 1.55 0 0 1 13.45 19h-6.9A1.55 1.55 0 0 1 5 17.45v-2.2q0-.1.016-.196L1.19 10.748a.75.75 0 0 1-.19-.52v-.004l.002-.008v-.024l.004-.083q.007-.106.025-.296c.024-.252.068-.606.146-1.029.157-.842.456-1.976 1.028-3.119.572-1.145 1.428-2.317 2.704-3.203C6.19 1.572 7.858 1 10 1M6.5 17.45c0 .027.022.05.05.05h6.9a.05.05 0 0 0 .05-.05V15.5h-7zM5.875 9c-1.527 0-2.387.448-2.853.83a2.5 2.5 0 0 0-.342.339l3.415 3.84q.075-.008.155-.009h3v-3.571q-.02-.035-.047-.08a2.4 2.4 0 0 0-.476-.519C8.262 9.448 7.402 9 5.875 9m8.25 0c-1.527 0-2.387.448-2.853.83a2.4 2.4 0 0 0-.476.519q-.028.045-.046.08V14h3q.077 0 .153.01l3.415-3.841a2.5 2.5 0 0 0-.34-.339c-.466-.382-1.326-.83-2.853-.83M10 2.5c-1.86 0-3.223.491-4.237 1.194-1.02.708-1.727 1.661-2.217 2.641a10 10 0 0 0-.688 1.82c.73-.38 1.713-.655 3.017-.655 1.847 0 3.05.552 3.803 1.17.12.098.226.2.322.297a4 4 0 0 1 .32-.297c.754-.618 1.957-1.17 3.805-1.17 1.303 0 2.285.276 3.015.654a10 10 0 0 0-.686-1.819c-.49-.98-1.198-1.933-2.218-2.64C13.222 2.99 11.858 2.5 10 2.5"/></svg>
